X:1
T:James Gibb editions
T:Brightest and best of the sons of the morning - Barnby
%%score [ ( 1 2 ) ( 3 4 ) ]
L:1/8
Q:1/4=100
M:3/4
K:Eb
V:1 treble nm="Midi_74"
V:2 treble 
V:3 bass nm="Midi_74"
V:4 bass 
V:1
"^Reginald Heber\n(1783-1826)""^Brightest and best of the sons of the morning""^Joseph Barnby\n(1838-96)""^11 10. 11 10" B2 c2 B2 | %1
 B2"^1" A2 G2 | G2 FG AD | F4 E2 || F2 G2 =A2 | B2 e2 d2 | c2 d2 c2 | B6 ||[M:3/4] B2 A2 G2 | %9
 A2 B2 c2 | f2 e2 B2 | B4 c2 || !courtesy!=d2 c2 B2 | e2 B2 G2 | c2 F2 AG | E6 || E6 | E6 |] %18
V:2
 G2 G2 F2 | E2 E2 E2 | C2 C2 D2 | D4 E2 || C2 C2 C2 | F2 E2 F2 | G2 F2 F2 | F6 || %8
[M:3/4] F2 F2 =E2 | F2 G2 A2 | A2 G2 G2 | G4 A2 || F2 E2 D2 | B,2 E2 _D2 | C2 C2 D2 | E6 || C6 | %17
 B,6 |] %18
V:3
 E2 E2 D2 | C2 C2 B,2 | B,2 A,2 A,2 | A,4 G,2 || =A,2 G,2 F,2 | F,2 B,2 B,2 | B,2 =A,2 E2 | D6 || %8
[M:3/4] _D2 C2 C2 | %9
 C2"^1 Brightest and best of the sons of the morning,\nDawn on our darkness, and lend us thine aid;\nStar of the east, the horizon adorning,\nGuide where our infant Redeemer is laid.\n\n2 Cold on his cradle the dew-drops are shining;\nLow lies his head with the beasts of the stall;\nAngels adore him in slumber reclining,\nMaker and Monarch and Saviour of all.\n\n3 Say, shall we yield him, in costly devotion,\nOdours of Edom, and offerings divine,\nGems of the mountain, and pearls of the ocean,\nMyrrh from the forest, or gold from the mine?\n\n4 Vainly we offer each ample oblation,\nVainly with gifts would his favour secure:\nRicher by far is the heart's adoration,\nDearer to God are the prayers of the poor." B,2 A,2 | %10
 B,2 B,2 E2 | _D4 C2 || B,2 C2 D2 | E2 G,2 B,2 | B,2 A,2 A,2 | G,6 || A,6 | G,6 |] %18
V:4
 E,2 E,2 E,2 | E,2 E,2 E,2 | A,,2 A,,2 B,,2 | E,4 E,2 || E,2 E,2 E,2 | D,2 G,2 F,2 | E,2 F,2 F,2 | %7
 B,6 ||[M:3/4] G,2 C2 C,2 | F,2 F,2 F,2 | _D,2 E,2 E,2 | A,4 A,2 || A,2 A,2 A,2 | G,2 G,2 E,2 | %14
 A,,2 A,,2 B,,2 | E,6 || A,,6 | E,6 |] %18

